X: 116
T:Scholar, The
M:4/4
L:1/8
R:reel
D:Paul McGrattan: The Frost Is All Over
Z:id:hn-reel-287
K:Dmix
|dfaf gfeg |fdAG FGAc |BG~G2 A2ag |fdec dcBA|
dfaf gfeg|fdAG FGAc|BG~G2 E2ag|1 fgef dABc:|2 fgef defg||
|:a2af dfaf | dfaf bagf | g2ge cege | cege agfg|
a2af dfaf | dfaf bfaf | g2gf gbag|1 fgef defg:|2 fgef dABc||
